packages/paste-website/src/assets/illustrations/home_getstarted_1.svg

<svg height="64" viewBox="0 0 51 64" width="51" xmlns="http://www.w3.org/2000/svg"><g fill="none" fill-rule="evenodd"><g fill="#fff" fill-rule="nonzero"><path d="m8.56774194 16.9290323h7.22580646c1.0322581 0 1.7548387-.8258065 1.7548387-1.7548388 0-.3096774-.1032258-.6193548-.3096774-.9290322l-3.6129032-5.67741936c-.5161291-.82580646-1.651613-1.03225807-2.4774194-.51612904-.2064516.10322581-.4129032.30967742-.516129.51612904l-3.61290326 5.67741936c-.51612903.8258064-.30967742 1.9612903.51612903 2.4774193.30967742.1032259.72258065.2064517 1.03225807.2064517z"/><circle cx="12.181" cy="26.219" r="4.955"/><path d="m21.7806452 21.7806452h8.9806451v8.9806451h-8.9806451zm-2.7870968 25.6c6.5032258 0 11.7677419-5.2645162 11.7677419-11.767742h-23.63870965c0 6.5032258 5.26451615 11.767742 11.87096775 11.767742z"/><circle cx="26.323" cy="12.181" r="5.058"/></g><path d="m50.9935484 18.4774194c-.1032258-3.2-1.4451613-6.2967742-3.8193549-8.56774198l-6.4-6.4c-2.2709677-2.27096774-5.3677419-3.50967742-8.5677419-3.50967742h-32.2064516v54.916129l15.0709677 8.7741936h23.8451613c6.7096775 0 12.0774194-5.367742 12.0774194-12.0774194zm-15.1741936 29.4193548c0 2.3741935-1.8580645 4.3354839-4.232258 4.3354839h-28.90322583v-49.54838713h28.80000003c2.3741935 0 4.3354838 1.96129032 4.3354838 4.33548387z" fill="#06033a"/><path d="m8.56774194 17.9612903h7.22580646c1.0322581 0 1.9612903-.516129 2.4774193-1.4451613.5161291-.9290322.4129033-1.9612903-.1032258-2.8903225l-3.6129032-5.6774194c-.8258064-1.34193549-2.5806452-1.75483871-3.9225806-.92903226l-.92903229.92903226-3.50967742 5.6774194c-.61935484.8258064-.61935484 1.9612903-.10322581 2.8903225.51612903.9290323 1.44516129 1.4451613 2.47741936 1.4451613zm-.61935484-3.2 3.6129032-5.67741933c.2064516-.30967742.6193549-.41290323.9290323-.20645162.1032258.10322581.2064516.10322581.2064516.20645162l3.6129032 5.67741933c.1032258.2064516.1032258.5161291 0 .7225807s-.4129032.4129032-.6193548.4129032h-7.12258066c-.30967742 0-.51612904-.1032258-.61935484-.4129032-.10322581-.3096775-.10322581-.5161291 0-.7225807zm4.2322581 5.4709678c-3.30322585 0-5.98709681 2.6838709-5.98709681 5.9870967s2.68387096 5.9870968 5.98709681 5.9870968c3.3032258 0 5.9870967-2.683871 5.9870967-5.9870968s-2.6838709-5.9870967-5.9870967-5.9870967zm0 9.9096774c-2.167742 0-3.92258068-1.7548387-3.92258068-3.9225807 0-2.1677419 1.75483868-3.9225806 3.92258068-3.9225806 2.1677419 0 3.9225806 1.7548387 3.9225806 3.9225806-.1032258 2.167742-1.8580645 3.9225807-3.9225806 3.9225807zm18.5806451 1.6516129c.6193549 0 1.0322581-.516129 1.0322581-1.0322581v-8.9806451c0-.6193549-.516129-1.0322581-1.0322581-1.0322581h-8.8774193c-.6193549 0-1.0322581.516129-1.0322581 1.0322581v8.9806451c0 .6193549.516129 1.0322581 1.0322581 1.0322581zm-7.8451613-8.9806452h6.8129033v6.8129033h-6.8129033zm7.8451613 11.6645162h-23.63870965c-.61935484 0-1.03225807.516129-1.03225807 1.032258 0 7.1225807 5.78064512 12.9032258 12.90322582 12.9032258 7.1225806 0 12.9032258-5.7806451 12.9032258-12.9032258-.1032258-.516129-.516129-1.032258-1.1354839-1.032258zm-11.7677419 11.8709677c-5.5741936 0-10.11612905-4.2322581-10.73548388-9.7032258h21.36774198c-.5161291 5.4709677-5.1612904 9.7032258-10.6322581 9.7032258zm7.3290322-40.36129033c-3.4064516 0-6.1935483 2.78709678-6.0903225 6.19354843 0 3.4064516 2.7870967 6.1935483 6.1935484 6.0903225 3.4064516 0 6.0903225-2.7870967 6.0903225-6.1935483 0-3.30322585-2.7870967-6.09032263-6.1935484-6.09032263zm0 10.21935483c-2.2709677 0-4.0258064-1.7548387-4.0258064-4.0258064 0-2.27096778 1.7548387-4.02580649 4.0258064-4.02580649 2.2709678 0 4.0258065 1.75483871 4.0258065 4.02580649 0 2.1677419-1.8580645 4.0258064-4.0258065 4.0258064z" fill="#f22f46"/></g></svg>

<svg xmlns="http://www.w3.org/2000/svg" width="51" height="64" viewBox="0 0 51 64">
  <g fill="none" fill-rule="evenodd">
    <path fill="#FFF" fill-rule="nonzero" d="M8.56774194,16.9290323 L15.7935484,16.9290323 C16.8258065,16.9290323 17.5483871,16.1032258 17.5483871,15.1741935 C17.5483871,14.8645161 17.4451613,14.5548387 17.2387097,14.2451613 L13.6258065,8.56774194 C13.1096774,7.74193548 11.9741935,7.53548387 11.1483871,8.0516129 C10.9419355,8.15483871 10.7354839,8.36129032 10.6322581,8.56774194 L7.01935484,14.2451613 C6.50322581,15.0709677 6.70967742,16.2064516 7.53548387,16.7225806 C7.84516129,16.8258065 8.25806452,16.9290323 8.56774194,16.9290323 Z"/>
    <circle cx="12.181" cy="26.219" r="4.955" fill="#FFF" fill-rule="nonzero"/>
    <path fill="#FFF" fill-rule="nonzero" d="M21.7806452,21.7806452 L30.7612903,21.7806452 L30.7612903,30.7612903 L21.7806452,30.7612903 L21.7806452,21.7806452 Z M18.9935484,47.3806452 C25.4967742,47.3806452 30.7612903,42.116129 30.7612903,35.6129032 L7.12258065,35.6129032 C7.12258065,42.116129 12.3870968,47.3806452 18.9935484,47.3806452 Z"/>
    <circle cx="26.323" cy="12.181" r="5.058" fill="#FFF" fill-rule="nonzero"/>
    <path fill="#06033A" d="M50.9935484,18.4774194 C50.8903226,15.2774194 49.5483871,12.1806452 47.1741935,9.90967742 L40.7741935,3.50967742 C38.5032258,1.23870968 35.4064516,0 32.2064516,0 L0,0 L0,54.916129 L15.0709677,63.6903226 L38.916129,63.6903226 C45.6258065,63.6903226 50.9935484,58.3225806 50.9935484,51.6129032 L50.9935484,18.4774194 Z M35.8193548,47.8967742 C35.8193548,50.2709677 33.9612903,52.2322581 31.5870968,52.2322581 L2.68387097,52.2322581 L2.68387097,2.68387097 L31.483871,2.68387097 C33.8580645,2.68387097 35.8193548,4.64516129 35.8193548,7.01935484 L35.8193548,47.8967742 Z"/>
    <path fill="#F22F46" d="M8.56774194,17.9612903 L15.7935484,17.9612903 C16.8258065,17.9612903 17.7548387,17.4451613 18.2709677,16.516129 C18.7870968,15.5870968 18.683871,14.5548387 18.1677419,13.6258065 L14.5548387,7.9483871 C13.7290323,6.60645161 11.9741935,6.19354839 10.6322581,7.01935484 L9.70322581,7.9483871 L6.19354839,13.6258065 C5.57419355,14.4516129 5.57419355,15.5870968 6.09032258,16.516129 C6.60645161,17.4451613 7.53548387,17.9612903 8.56774194,17.9612903 Z M7.9483871,14.7612903 L11.5612903,9.08387097 C11.7677419,8.77419355 12.1806452,8.67096774 12.4903226,8.87741935 C12.5935484,8.98064516 12.6967742,8.98064516 12.6967742,9.08387097 L16.3096774,14.7612903 C16.4129032,14.9677419 16.4129032,15.2774194 16.3096774,15.483871 C16.2064516,15.6903226 15.8967742,15.8967742 15.6903226,15.8967742 L8.56774194,15.8967742 C8.25806452,15.8967742 8.0516129,15.7935484 7.9483871,15.483871 C7.84516129,15.1741935 7.84516129,14.9677419 7.9483871,14.7612903 Z M12.1806452,20.2322581 C8.87741935,20.2322581 6.19354839,22.916129 6.19354839,26.2193548 C6.19354839,29.5225806 8.87741935,32.2064516 12.1806452,32.2064516 C15.483871,32.2064516 18.1677419,29.5225806 18.1677419,26.2193548 C18.1677419,22.916129 15.483871,20.2322581 12.1806452,20.2322581 Z M12.1806452,30.1419355 C10.0129032,30.1419355 8.25806452,28.3870968 8.25806452,26.2193548 C8.25806452,24.0516129 10.0129032,22.2967742 12.1806452,22.2967742 C14.3483871,22.2967742 16.1032258,24.0516129 16.1032258,26.2193548 C16,28.3870968 14.2451613,30.1419355 12.1806452,30.1419355 Z M30.7612903,31.7935484 C31.3806452,31.7935484 31.7935484,31.2774194 31.7935484,30.7612903 L31.7935484,21.7806452 C31.7935484,21.1612903 31.2774194,20.7483871 30.7612903,20.7483871 L21.883871,20.7483871 C21.2645161,20.7483871 20.8516129,21.2645161 20.8516129,21.7806452 L20.8516129,30.7612903 C20.8516129,31.3806452 21.3677419,31.7935484 21.883871,31.7935484 L30.7612903,31.7935484 L30.7612903,31.7935484 Z M22.916129,22.8129032 L29.7290323,22.8129032 L29.7290323,29.6258065 L22.916129,29.6258065 L22.916129,22.8129032 Z M30.7612903,34.4774194 L7.12258065,34.4774194 C6.50322581,34.4774194 6.09032258,34.9935484 6.09032258,35.5096774 C6.09032258,42.6322581 11.8709677,48.4129032 18.9935484,48.4129032 C26.116129,48.4129032 31.8967742,42.6322581 31.8967742,35.5096774 C31.7935484,34.9935484 31.3806452,34.4774194 30.7612903,34.4774194 Z M18.9935484,46.3483871 C13.4193548,46.3483871 8.87741935,42.116129 8.25806452,36.6451613 L29.6258065,36.6451613 C29.1096774,42.116129 24.4645161,46.3483871 18.9935484,46.3483871 L18.9935484,46.3483871 Z M26.3225806,5.98709677 C22.916129,5.98709677 20.1290323,8.77419355 20.2322581,12.1806452 C20.2322581,15.5870968 23.0193548,18.3741935 26.4258065,18.2709677 C29.8322581,18.2709677 32.516129,15.483871 32.516129,12.0774194 C32.516129,8.77419355 29.7290323,5.98709677 26.3225806,5.98709677 L26.3225806,5.98709677 Z M26.3225806,16.2064516 C24.0516129,16.2064516 22.2967742,14.4516129 22.2967742,12.1806452 C22.2967742,9.90967742 24.0516129,8.15483871 26.3225806,8.15483871 C28.5935484,8.15483871 30.3483871,9.90967742 30.3483871,12.1806452 C30.3483871,14.3483871 28.4903226,16.2064516 26.3225806,16.2064516 Z"/>
  </g>
</svg>
